Newaita/actions/32/object-flip-vertical.svg

<svg height="32" viewBox="0 0 32 32" width="32" xmlns="http://www.w3.org/2000/svg"><g fill="#424242"><path d="m23.152344 26.710938c0 1.464843-1.179688 2.644531-2.644532 2.644531h-9.261718c-1.464844 0-2.644532-1.179688-2.644532-2.644531v-5.292969c0-1.464844 1.179688-2.644531 2.644532-2.644531h9.261718c1.464844 0 2.644532 1.179687 2.644532 2.644531zm0 0"/><path d="m23.152344 10.835938c0 1.464843-1.179688 2.644531-2.644532 2.644531h-9.261718c-1.464844 0-2.644532-1.179688-2.644532-2.644531v-5.292969c0-1.464844 1.179688-2.648438 2.644532-2.648438h9.261718c1.464844 0 2.644532 1.183594 2.644532 2.648438zm-2.644532-1.324219v-2.644531c0-.734376-.589843-1.324219-1.324218-1.324219h-6.613282c-.734374 0-1.324218.589843-1.324218 1.324219v2.644531c0 .734375.589844 1.324219 1.324218 1.324219h6.613282c.734375 0 1.324218-.589844 1.324218-1.324219zm0 0"/><path d="m29.105469 8.1875c0 .730469-.589844 1.324219-1.320313 1.324219-.730468 0-1.324218-.59375-1.324218-1.324219s.59375-1.320312 1.324218-1.320312c.730469 0 1.320313.589843 1.320313 1.320312zm0 0"/><path d="m5.292969 8.1875c0 .730469-.59375 1.324219-1.324219 1.324219s-1.324219-.59375-1.324219-1.324219.59375-1.320312 1.324219-1.320312 1.324219.589843 1.324219 1.320312zm0 0"/><path d="m29.105469 24.066406c0 .730469-.589844 1.320313-1.320313 1.320313-.730468 0-1.324218-.589844-1.324218-1.320313 0-.730468.59375-1.324218 1.324218-1.324218.730469 0 1.320313.59375 1.320313 1.324218zm0 0"/><path d="m5.292969 24.066406c0 .730469-.59375 1.320313-1.324219 1.320313s-1.324219-.589844-1.324219-1.320313c0-.730468.59375-1.324218 1.324219-1.324218s1.324219.59375 1.324219 1.324218zm0 0"/><path d="m19.84375 16.125c0 .730469-.589844 1.324219-1.320312 1.324219-.730469 0-1.324219-.59375-1.324219-1.324219s.59375-1.320312 1.324219-1.320312c.730468 0 1.320312.589843 1.320312 1.320312zm0 0"/><path d="m14.554688 16.125c0 .730469-.59375 1.324219-1.324219 1.324219s-1.324219-.59375-1.324219-1.324219.59375-1.320312 1.324219-1.320312 1.324219.589843 1.324219 1.320312zm0 0"/></g></svg>

<?xml version="1.0" encoding="UTF-8"?>
<svg xmlns="http://www.w3.org/2000/svg" xmlns:xlink="http://www.w3.org/1999/xlink" width="32px" height="32px" viewBox="0 0 32 32" version="1.1">
<g id="surface1">
<path style=" stroke:none;fill-rule:nonzero;fill:rgb(25.882354%,25.882354%,25.882354%);fill-opacity:1;" d="M 23.152344 26.710938 C 23.152344 28.175781 21.972656 29.355469 20.507812 29.355469 L 11.246094 29.355469 C 9.78125 29.355469 8.601562 28.175781 8.601562 26.710938 L 8.601562 21.417969 C 8.601562 19.953125 9.78125 18.773438 11.246094 18.773438 L 20.507812 18.773438 C 21.972656 18.773438 23.152344 19.953125 23.152344 21.417969 Z M 23.152344 26.710938 "/>
<path style=" stroke:none;fill-rule:nonzero;fill:rgb(25.882354%,25.882354%,25.882354%);fill-opacity:1;" d="M 23.152344 10.835938 C 23.152344 12.300781 21.972656 13.480469 20.507812 13.480469 L 11.246094 13.480469 C 9.78125 13.480469 8.601562 12.300781 8.601562 10.835938 L 8.601562 5.542969 C 8.601562 4.078125 9.78125 2.894531 11.246094 2.894531 L 20.507812 2.894531 C 21.972656 2.894531 23.152344 4.078125 23.152344 5.542969 Z M 20.507812 9.511719 L 20.507812 6.867188 C 20.507812 6.132812 19.917969 5.542969 19.183594 5.542969 L 12.570312 5.542969 C 11.835938 5.542969 11.246094 6.132812 11.246094 6.867188 L 11.246094 9.511719 C 11.246094 10.246094 11.835938 10.835938 12.570312 10.835938 L 19.183594 10.835938 C 19.917969 10.835938 20.507812 10.246094 20.507812 9.511719 Z M 20.507812 9.511719 "/>
<path style=" stroke:none;fill-rule:nonzero;fill:rgb(25.882354%,25.882354%,25.882354%);fill-opacity:1;" d="M 29.105469 8.1875 C 29.105469 8.917969 28.515625 9.511719 27.785156 9.511719 C 27.054688 9.511719 26.460938 8.917969 26.460938 8.1875 C 26.460938 7.457031 27.054688 6.867188 27.785156 6.867188 C 28.515625 6.867188 29.105469 7.457031 29.105469 8.1875 Z M 29.105469 8.1875 "/>
<path style=" stroke:none;fill-rule:nonzero;fill:rgb(25.882354%,25.882354%,25.882354%);fill-opacity:1;" d="M 5.292969 8.1875 C 5.292969 8.917969 4.699219 9.511719 3.96875 9.511719 C 3.238281 9.511719 2.644531 8.917969 2.644531 8.1875 C 2.644531 7.457031 3.238281 6.867188 3.96875 6.867188 C 4.699219 6.867188 5.292969 7.457031 5.292969 8.1875 Z M 5.292969 8.1875 "/>
<path style=" stroke:none;fill-rule:nonzero;fill:rgb(25.882354%,25.882354%,25.882354%);fill-opacity:1;" d="M 29.105469 24.066406 C 29.105469 24.796875 28.515625 25.386719 27.785156 25.386719 C 27.054688 25.386719 26.460938 24.796875 26.460938 24.066406 C 26.460938 23.335938 27.054688 22.742188 27.785156 22.742188 C 28.515625 22.742188 29.105469 23.335938 29.105469 24.066406 Z M 29.105469 24.066406 "/>
<path style=" stroke:none;fill-rule:nonzero;fill:rgb(25.882354%,25.882354%,25.882354%);fill-opacity:1;" d="M 5.292969 24.066406 C 5.292969 24.796875 4.699219 25.386719 3.96875 25.386719 C 3.238281 25.386719 2.644531 24.796875 2.644531 24.066406 C 2.644531 23.335938 3.238281 22.742188 3.96875 22.742188 C 4.699219 22.742188 5.292969 23.335938 5.292969 24.066406 Z M 5.292969 24.066406 "/>
<path style=" stroke:none;fill-rule:nonzero;fill:rgb(25.882354%,25.882354%,25.882354%);fill-opacity:1;" d="M 19.84375 16.125 C 19.84375 16.855469 19.253906 17.449219 18.523438 17.449219 C 17.792969 17.449219 17.199219 16.855469 17.199219 16.125 C 17.199219 15.394531 17.792969 14.804688 18.523438 14.804688 C 19.253906 14.804688 19.84375 15.394531 19.84375 16.125 Z M 19.84375 16.125 "/>
<path style=" stroke:none;fill-rule:nonzero;fill:rgb(25.882354%,25.882354%,25.882354%);fill-opacity:1;" d="M 14.554688 16.125 C 14.554688 16.855469 13.960938 17.449219 13.230469 17.449219 C 12.5 17.449219 11.90625 16.855469 11.90625 16.125 C 11.90625 15.394531 12.5 14.804688 13.230469 14.804688 C 13.960938 14.804688 14.554688 15.394531 14.554688 16.125 Z M 14.554688 16.125 "/>
</g>
</svg>
